**harmony	**harte	**kern	**silbe	**rhyme	**timestamp	**phrase
*M4/4	*M4/4	*ICvox	*	*	*	*
*	*	*VRlead	*	*	*	*
*	*	*Hstimme	*	*	*	*
*A:	*A:	*A:	*	*	*	*
*	*	*M4/4	*	*	*	*
*	*	*clefG2	*	*	*	*
1r;	1r	r;	.	.	0	.
=1	=1	=1	=1	=1	=1	=1
*>Letter>A	*>Letter>A	*>Letter>A	*>Letter>A	*>Letter>A	*>Letter>A	*>Letter>A
*>Label>Intro	*>Label>Intro	*>Label>Intro	*>Label>Intro	*>Label>Intro	*>Label>Intro	*>Label>Intro
1AM	A:maj	1r	.	.	0.05	newline
=2	=2	=2	=2	=2	=2	=2
1AM	A:maj	1r	.	.	2.751	.
=3	=3	=3	=3	=3	=3	=3
1AM	A:maj	1r	.	.	5.452	.
=4	=4	=4	=4	=4	=4	=4
1AM	A:maj	1r	.	.	8.153	.
=5	=5	=5	=5	=5	=5	=5
1AM	A:maj	1r	.	.	10.854	.
=6	=6	=6	=6	=6	=6	=6
1AM	A:maj	1r	.	.	13.555	.
=7	=7	=7	=7	=7	=7	=7
1AM	A:maj	1r	.	.	16.256	.
=8	=8	=8	=8	=8	=8	=8
1AM	A:maj	1r	.	.	18.957	.
=9	=9	=9	=9	=9	=9	=9
1AM	A:maj	1r	.	.	21.658	.
=10	=10	=10	=10	=10	=10	=10
1AM	A:maj	1r	.	.	24.359	.
=11	=11	=11	=11	=11	=11	=11
1AM	A:maj	1r	.	.	27.06	.
=12	=12	=12	=12	=12	=12	=12
1AM	A:maj	1r	.	.	.	.
=13	=13	=13	=13	=13	=13	=13
*>Letter>A	*>Letter>A	*>Letter>A	*>Letter>A	*>Letter>A	*>Letter>A	*>Letter>A
*>Label>Verse	*>Label>Verse	*>Label>Verse	*>Label>Verse	*>Label>Verse	*>Label>Verse	*>Label>Verse
1AM	A:maj	16c#	I	.	43.266	newline
.	.	16c#	know	.	.	.
.	.	16c#	a	.	.	.
.	.	16e	cat	.	.	.
.	.	8r	.	.	.	.
.	.	8c#	named	.	.	.
.	.	8B	Way-	.	.	.
.	.	8A	-Out	.	.	.
.	.	16A	Wi-	(A	.	.
.	.	[8.A	-llie	a)	.	.
=14	=14	=14	=14	=14	=14	=14
1AM	A:maj	4A]	_	.	.	.
.	.	2r	.	.	.	.
.	.	8r	.	.	.	.
.	.	16c#	Got	.	.	.
.	.	16c#	a	.	.	.
=15	=15	=15	=15	=15	=15	=15
1AM	A:maj	8c#	cool	.	.	.
.	.	16c#	lit-	.	.	.
.	.	16c#	-tle	.	.	.
.	.	8B	chick	.	.	.
.	.	8A	named	.	.	.
.	.	8A	Roc-	.	.	.
.	.	8A	-king	.	.	.
.	.	16F#	Mil-	(A	.	.
.	.	[8.E	-lie	a)	.	.
=16	=16	=16	=16	=16	=16	=16
1AM	A:maj	4E]	_	.	.	.
.	.	2r	.	.	.	.
.	.	8r	.	.	.	.
.	.	16d	He	.	.	.
.	.	16d	can	.	.	.
=17	=17	=17	=17	=17	=17	=17
1DM	D:maj	8d	walk	.	53.948	newline
.	.	8d	and	.	.	.
.	.	8d	stroll	.	.	.
.	.	8d	and	.	.	.
.	.	8e	Su-	.	.	.
.	.	16e	-sie	.	.	.
.	.	[16d	Q	B	.	.
.	.	4d]	_	.	.	.
=18	=18	=18	=18	=18	=18	=18
2.DM	D:maj	2r	.	.	.	.
.	.	4r	.	.	.	.
4CM	C:5	8r	.	.	.	.
.	.	16r	.	.	.	.
.	.	16A	And	.	.	.
=19	=19	=19	=19	=19	=19	=19
1AM	A:maj	8c#	do	.	.	.
.	.	8e	that	.	.	.
.	.	8B	cra-	.	.	.
.	.	16A	-zy	.	.	.
.	.	[16A	hand	.	.	.
.	.	8A]	_	.	.	.
.	.	4A	jive,	.	.	.
.	.	[8E	too	B	.	.
=20	=20	=20	=20	=20	=20	=20
1AM	A:maj	4E]	_	.	.	.
.	.	2r	.	.	.	.
.	.	4r	.	.	.	.
=21	=21	=21	=21	=21	=21	=21
*>Letter>A	*>Letter>A	*>Letter>A	*>Letter>A	*>Letter>A	*>Letter>A	*>Letter>A
*>Label>Verse	*>Label>Verse	*>Label>Verse	*>Label>Verse	*>Label>Verse	*>Label>Verse	*>Label>Verse
1AM	A:maj	8c#	Ma-	.	64.739	newline
.	.	16c#	-ma,	.	.	.
.	.	[16e	ma-	.	.	.
.	.	16e]	_	.	.	.
.	.	16e	-ma,	.	.	.
.	.	16c#	look	.	.	.
.	.	16B	at	.	.	.
.	.	8B	Un-	.	.	.
.	.	8A	-cle	.	.	.
.	.	[4A	Joe	C	.	.
=22	=22	=22	=22	=22	=22	=22
1AM	A:maj	4A]	_	.	.	.
.	.	2r	.	.	.	.
.	.	4r	.	.	.	.
=23	=23	=23	=23	=23	=23	=23
1AM	A:maj	16c#	Do-	.	.	.
.	.	16c#	-ing	.	.	.
.	.	16c#	the	.	.	.
.	.	[16B	hand	.	.	.
.	.	16B]	_	.	.	.
.	.	8A	jive	.	.	.
.	.	16A	with	.	.	.
.	.	8A	sis-	.	.	.
.	.	8A	-ter	.	.	.
.	.	4E	Flo	C	.	.
=24	=24	=24	=24	=24	=24	=24
1AM	A:maj	1r	.	.	.	.
=25	=25	=25	=25	=25	=25	=25
1DM	D:maj	16d	Grand-	.	75.496	newline
.	.	16d	-ma	.	.	.
.	.	8d	gave	.	.	.
.	.	8d	ba-	.	.	.
.	.	16d	-by	.	.	.
.	.	[16e	sis-	.	.	.
.	.	16e]	_	.	.	.
.	.	16e	-ter	.	.	.
.	.	16e	a	.	.	.
.	.	[16d	dime	D	.	.
.	.	8d]	_	.	.	.
.	.	[8c	_	.	.	.
=26	=26	=26	=26	=26	=26	=26
2.DM	D:maj	4c]	_	.	.	.
.	.	2r	.	.	.	.
4CM	C:5	8r	.	.	.	.
.	.	16r	.	.	.	.
.	.	16A	Said,	.	.	.
=27	=27	=27	=27	=27	=27	=27
1AM	A:maj	8c#	Do	.	.	.
.	.	8e	that	.	.	.
.	.	8B	hand	.	.	.
.	.	8A	jive	.	.	.
.	.	8A	one	.	.	.
.	.	4A	more	.	.	.
.	.	[8E	time	D	.	.
=28	=28	=28	=28	=28	=28	=28
1AM	A:maj	4.E]	_	.	.	.
.	.	4r	.	.	.	.
.	.	8r	.	.	.	.
.	.	4c	Hand	.	.	.
=29	=29	=29	=29	=29	=29	=29
*>Letter>B	*>Letter>B	*>Letter>B	*>Letter>B	*>Letter>B	*>Letter>B	*>Letter>B
*>Label>Chorus	*>Label>Chorus	*>Label>Chorus	*>Label>Chorus	*>Label>Chorus	*>Label>Chorus	*>Label>Chorus
1DM	D:maj	4.A	jive	.	86.254	newline
.	.	4r	.	.	.	.
.	.	8r	.	.	.	.
.	.	4c#	hand	.	.	.
=30	=30	=30	=30	=30	=30	=30
1AM	A:maj	4.c#	jive	.	.	.
.	.	4r	.	.	.	.
.	.	8r	.	.	.	.
.	.	4c#	hand	.	.	.
=31	=31	=31	=31	=31	=31	=31
1EMm	E:7	4.B	jive	.	.	.
.	.	8r	.	.	.	.
.	.	8e	Do	.	.	.
.	.	8d	that	.	.	.
.	.	16c#	cra-	.	.	.
.	.	16A	-zy	.	.	.
.	.	8A	hand	.	.	.
=32	=32	=32	=32	=32	=32	=32
*>Letter>A	*>Letter>A	*>Letter>A	*>Letter>A	*>Letter>A	*>Letter>A	*>Letter>A
*>Label>Interlude	*>Label>Interlude	*>Label>Interlude	*>Label>Interlude	*>Label>Interlude	*>Label>Interlude	*>Label>Interlude
1AM	A:maj	4.A	jive	.	94.42	->newline
.	.	2r	.	.	.	.
.	.	8r	.	.	.	.
=33	=33	=33	=33	=33	=33	=33
1AM	A:maj	1r	.	.	.	.
=34	=34	=34	=34	=34	=34	=34
*>Letter>A	*>Letter>A	*>Letter>A	*>Letter>A	*>Letter>A	*>Letter>A	*>Letter>A
*>Label>Verse	*>Label>Verse	*>Label>Verse	*>Label>Verse	*>Label>Verse	*>Label>Verse	*>Label>Verse
1AM	A:maj	16c#	Doc-	.	107.722	newline
.	.	16c#	-tor	.	.	.
.	.	16c#	and	.	.	.
.	.	16c#	a	.	.	.
.	.	16e	law-	.	.	.
.	.	16e	-yer	.	.	.
.	.	16c#	and	.	.	.
.	.	16B	an	.	.	.
.	.	8B	In-	.	.	.
.	.	8A	-dian	.	.	.
.	.	4A	chief	E	.	.
=35	=35	=35	=35	=35	=35	=35
1AM	A:maj	1r	.	.	.	.
=36	=36	=36	=36	=36	=36	=36
1AM	A:maj	16c#	They	.	.	.
.	.	8c#	all	.	.	.
.	.	[16B	dig	.	.	.
.	.	8B]	_	.	.	.
.	.	8A	that	.	.	.
.	.	8A	cra-	.	.	.
.	.	16A	-zy	.	.	.
.	.	[16E	beat	E	.	.
.	.	4E_	_	.	.	.
=37	=37	=37	=37	=37	=37	=37
1AM	A:maj	4E]	_	.	.	.
.	.	2r	.	.	.	.
.	.	4r	.	.	.	.
=38	=38	=38	=38	=38	=38	=38
1DM	D:maj	16d	Way-	.	118.521	newline
.	.	8d	-Out	.	.	.
.	.	[16d	Wi-	.	.	.
.	.	16d]	_	.	.	.
.	.	16d	-llie	.	.	.
.	.	16d	gave	.	.	.
.	.	16d	them	.	.	.
.	.	8e	all	.	.	.
.	.	16e	a	.	.	.
.	.	[16d	treat	E	.	.
.	.	4d]	_	.	.	.
=39	=39	=39	=39	=39	=39	=39
2.DM	D:maj	2r	.	.	.	.
.	.	4r	.	.	.	.
4CM	C:5	8r	.	.	.	.
.	.	16A	When	.	.	.
.	.	16A	he	.	.	.
=40	=40	=40	=40	=40	=40	=40
1AM	A:maj	8c#	did	.	.	.
.	.	8e	that	.	.	.
.	.	8B	hand	.	.	.
.	.	8A	jive	.	.	.
.	.	16A	with	.	.	.
.	.	8.A	his	.	.	.
.	.	[4E	feet	E	.	.
=41	=41	=41	=41	=41	=41	=41
1AM	A:maj	4E]	_	.	.	.
.	.	2r	.	.	.	.
.	.	4c	Hand	.	.	.
=42	=42	=42	=42	=42	=42	=42
*>Letter>B	*>Letter>B	*>Letter>B	*>Letter>B	*>Letter>B	*>Letter>B	*>Letter>B
*>Label>Chorus	*>Label>Chorus	*>Label>Chorus	*>Label>Chorus	*>Label>Chorus	*>Label>Chorus	*>Label>Chorus
1DM	D:maj	4.A	jive	.	129.291	newline
.	.	4r	.	.	.	.
.	.	8r	.	.	.	.
.	.	4c#	hand	.	.	.
=43	=43	=43	=43	=43	=43	=43
1AM	A:maj	4.A	jive	.	.	.
.	.	4r	.	.	.	.
.	.	8r	.	.	.	.
.	.	4c#	hand	.	.	.
=44	=44	=44	=44	=44	=44	=44
1EMm	E:7	4.B	jive	.	.	.
.	.	8r	.	.	.	.
.	.	8e	Do	.	.	.
.	.	8d	that	.	.	.
.	.	16c#	cra-	.	.	.
.	.	16A	-zy	.	.	.
.	.	8A	hand	.	.	.
=45	=45	=45	=45	=45	=45	=45
*>Letter>A	*>Letter>A	*>Letter>A	*>Letter>A	*>Letter>A	*>Letter>A	*>Letter>A
*>Label>Interlude	*>Label>Interlude	*>Label>Interlude	*>Label>Interlude	*>Label>Interlude	*>Label>Interlude	*>Label>Interlude
1AM	A:maj	4.A	jive	.	137.483	->newline
.	.	2r	.	.	.	.
.	.	8r	.	.	.	.
=46	=46	=46	=46	=46	=46	=46
1AM	A:maj	1r	.	.	.	.
=47	=47	=47	=47	=47	=47	=47
1AM	A:maj	1r	.	.	.	.
=48	=48	=48	=48	=48	=48	=48
1AM	A:maj	1r	.	.	.	.
=49	=49	=49	=49	=49	=49	=49
1AM	A:maj	1r	.	.	.	.
=50	=50	=50	=50	=50	=50	=50
1AM	A:maj	1r	.	.	.	.
=51	=51	=51	=51	=51	=51	=51
*>Letter>A	*>Letter>A	*>Letter>A	*>Letter>A	*>Letter>A	*>Letter>A	*>Letter>A
*>Label>Verse	*>Label>Verse	*>Label>Verse	*>Label>Verse	*>Label>Verse	*>Label>Verse	*>Label>Verse
1AM	A:maj	16c#	Wil-	(A	230.524	newline
.	.	16c#	-lie	a)	.	.
.	.	16c#	and	.	.	.
.	.	[16e	Mil-	(A	.	.
.	.	16e]	_	.	.	.
.	.	16e	-lie	a)	.	.
.	.	8c#	got	.	.	.
.	.	16B	mar-	.	.	.
.	.	16A	-ried	.	.	.
.	.	[8A	last	.	.	.
.	.	16A]	_	.	.	.
.	.	[8.A	fall	F	.	.
=52	=52	=52	=52	=52	=52	=52
1AM	A:maj	4A]	_	.	.	.
.	.	2r	.	.	.	.
.	.	16r	.	.	.	.
.	.	16A	They	.	.	.
.	.	16c#	had	.	.	.
.	.	16c#	a	.	.	.
=53	=53	=53	=53	=53	=53	=53
1AM	A:maj	16c#	lit-	.	.	.
.	.	16c#	-tle	.	.	.
.	.	16c#	Wil-	.	.	.
.	.	16c#	-lie	.	.	.
.	.	16B	ju-	.	.	.
.	.	16A	-nior	.	.	.
.	.	8A	and	.	.	.
.	.	16A	that	.	.	.
.	.	8A	ain't	.	.	.
.	.	[16E	all	F	.	.
.	.	4E]	_	.	.	.
=54	=54	=54	=54	=54	=54	=54
1AM	A:maj	2r	.	.	.	.
.	.	4r	.	.	.	.
.	.	8r	.	.	.	.
.	.	16d	Well,	.	.	.
.	.	16d	the	.	.	.
=55	=55	=55	=55	=55	=55	=55
1DM	D:maj	8d	kids	.	241.282	newline
.	.	8d	got	.	.	.
.	.	16d	cra-	.	.	.
.	.	16d	-zy	.	.	.
.	.	16d	and	.	.	.
.	.	16d	it's	.	.	.
.	.	8e	plain	.	.	.
.	.	16e	to	.	.	.
.	.	[16d	see	E	.	.
.	.	4d]	_	.	.	.
=56	=56	=56	=56	=56	=56	=56
2.DM	D:maj	2r	.	.	.	.
.	.	4r	.	.	.	.
4CM	C:5	8r	.	.	.	.
.	.	16r	.	.	.	.
.	.	16A	Uh	.	.	.
=57	=57	=57	=57	=57	=57	=57
1AM	A:maj	16c#	Do-	.	.	.
.	.	16c#	-ing	.	.	.
.	.	16e	the	.	.	.
.	.	[16B	hand	.	.	.
.	.	8B]	_	.	.	.
.	.	8A	jive	.	.	.
.	.	8A	on	.	.	.
.	.	8A	T.-	E	.	.
.	.	4E	-V.	E	.	.
=58	=58	=58	=58	=58	=58	=58
1AM	A:maj	2r	.	.	.	.
.	.	4r	.	.	.	.
.	.	4c	Hand	.	.	.
=59	=59	=59	=59	=59	=59	=59
*>Letter>B	*>Letter>B	*>Letter>B	*>Letter>B	*>Letter>B	*>Letter>B	*>Letter>B
*>Label>Chorus	*>Label>Chorus	*>Label>Chorus	*>Label>Chorus	*>Label>Chorus	*>Label>Chorus	*>Label>Chorus
1DM	D:maj	4.A	jive	.	252.106	newline
.	.	4r	.	.	.	.
.	.	8r	.	.	.	.
.	.	4c#	hand	.	.	.
=60	=60	=60	=60	=60	=60	=60
1AM	A:maj	4.c#	jive	.	.	.
.	.	4r	.	.	.	.
.	.	8r	.	.	.	.
.	.	4c#	hand	.	.	.
=61	=61	=61	=61	=61	=61	=61
1EMm	E:7	4.B	jive	.	.	.
.	.	8r	.	.	.	.
.	.	8e	Do	.	.	.
.	.	8d	that	.	.	.
.	.	16c#	cra-	.	.	.
.	.	16A	-zy	.	.	.
.	.	8A	hand	.	.	.
=62	=62	=62	=62	=62	=62	=62
*>Letter>A	*>Letter>A	*>Letter>A	*>Letter>A	*>Letter>A	*>Letter>A	*>Letter>A
*>Label>Outro	*>Label>Outro	*>Label>Outro	*>Label>Outro	*>Label>Outro	*>Label>Outro	*>Label>Outro
1AM	A:maj	4.A	jive	.	260.264	->newline
.	.	8r	.	.	.	.
.	.	8.e	Hey	.	.	.
.	.	16e	hey	.	.	.
.	.	16d	_	.	.	.
.	.	8.c	_	.	.	.
=63	=63	=63	=63	=63	=63	=63
1AM	A:maj	1r	.	.	.	.
=64	=64	=64	=64	=64	=64	=64
1AM	A:maj	1r	.	.	.	.
=65	=65	=65	=65	=65	=65	=65
1AM	A:maj	1r	.	.	.	.
=66	=66	=66	=66	=66	=66	=66
1AM	A:maj	1r	.	.	.	.
=67	=67	=67	=67	=67	=67	=67
1AM	A:maj	1r	.	.	.	.
=68	=68	=68	=68	=68	=68	=68
1AM	A:maj	1r	.	.	.	.
=69	=69	=69	=69	=69	=69	=69
1AM	A:maj	1r	.	.	.	.
=70	=70	=70	=70	=70	=70	=70
1AM	A:maj	1r	.	.	.	.
=71	=71	=71	=71	=71	=71	=71
1AM	A:maj	1r	.	.	.	.
=72	=72	=72	=72	=72	=72	=72
1AM	A:maj	1r	.	.	.	.
=73	=73	=73	=73	=73	=73	=73
1AM	A:maj	1r	.	.	.	.
=74	=74	=74	=74	=74	=74	=74
1AM	A:maj	1r	.	.	.	.
=75	=75	=75	=75	=75	=75	=75
1AM	A:maj	1r	.	.	.	.
=76	=76	=76	=76	=76	=76	=76
1AM	A:maj	1r	.	.	.	.
=77	=77	=77	=77	=77	=77	=77
1AM	A:maj	1r	.	.	.	.
=78	=78	=78	=78	=78	=78	=78
1AM	A:maj	1r	.	.	.	.
1r;	1r	r;	.	.	.	.
*-	*-	*-	*-	*-	*-	*-
!!!BillboardChartDate: 1974/12/21
!!!BillboardPeak: 26
!!!BillboardWeeksOnChart: 9
!!!COC: Eric Clapton
!!!EMD: Mcgill transcriptions is way too long album version. Cut it down and removed timestamps. -Nat
!!!ENC: Nathaniel Condit-Schultz
!!!EST: Awating manual error checking and editing.
!!!OTL: Willie And The Hand Jive
!!!RDF**chordsym: original McGill chord annotation + (implied pitch class set, with bass pitch in first position)
!!!RDF**harmony: **recip + pitch class of root + harmonic quality
!!!RDF**leadinstrument: original McGill primary instrumentation annotation
!!!RDF**phrase: newline = linebreak in original McGill transcription
!!!RDF**timestamp: McGill audio timestamp in seconds
!!!RDT: 2017/01/12/
!!!SampleActualRank: 36
!!!SampleID#: 0194
!!!SampleTargetRank: 38
!!!MBID: 4e019b3f-9667-4a42-a9ec-29a3e76a6d11